X: 0622
T: DAT NIGGER'S IN LUB WID DINAH
B: Oliver Ditson "The Boston Collection of Instrumental Music" 1910 p.62 #2
F: http://conquest.imslp.info/files/imglnks/usimg/8/8f/IMSLP175643-PMLP309456-bostoncollection00bost_bw.pdf
M: 2/4
L: 1/8
K: D
A |\
dc BA | BF FA | dc BA | B2 zA |\
dc BA | BF F>D | EE FF | [BB,][BB,]/[BB,]/ [BB,] :|
|: D |\
DD/D/ DF | AF FD | EE/E/ FA | B^A Bd |\
DD/D/ DF | AF FD | EE/E/ FF | [B2B,2] z :|

%%sep 1 1 500
%%sep 1 1 500
